src/components/Chapters/assets/textBalloonBig.svg

<svg width="728" height="450" viewBox="0 0 728 450" fill="none" xmlns="http://www.w3.org/2000/svg">
<path fill-rule="evenodd" clip-rule="evenodd" d="M715.293 16.6808L10.4062 10.3828L22.1147 371.393L128.286 372.342L51.0405 449.515L218.581 373.148L727.001 377.691L715.293 16.6808Z" fill="#CBBEBD"/>
<path fill-rule="evenodd" clip-rule="evenodd" d="M704.886 6.29795L0 0L11.7085 361.01L125.357 362.026L46.9329 447.462L207.387 362.759L716.595 367.308L704.886 6.29795Z" fill="#FFF1F0"/>
</svg>

<svg width="728" height="450" fill="none" xmlns="http://www.w3.org/2000/svg"><path fill-rule="evenodd" clip-rule="evenodd" d="M715.293 16.68L10.406 10.384l11.709 361.01 106.171.949-77.245 77.173 167.54-76.367 508.42 4.543-11.708-361.01z" fill="#CBBEBD"/><path fill-rule="evenodd" clip-rule="evenodd" d="M704.886 6.298L0 0l11.709 361.01 113.648 1.016-78.424 85.436 160.454-84.703 509.208 4.549-11.709-361.01z" fill="#FFF1F0"/></svg>
